svgs/light/code-merge.svg

<svg xmlns="http://www.w3.org/2000/svg" viewBox="0 0 448 512"><!--! Font Awesome Pro 6.0.0-alpha3 by @fontawesome - https://fontawesome.com License - https://fontawesome.com/license (Commercial License) --><path d="M368 192c-38.7 0-70.97 27.48-78.39 64H224C163.5 256 113 213.7 99.69 157.3C134.3 148.5 160 117.3 160 80C160 35.82 124.2 0 80 0C35.82 0 0 35.82 0 80c0 38.7 27.49 70.97 64 78.39v195.2C27.49 361 0 393.3 0 432C0 476.2 35.82 512 80 512C124.2 512 160 476.2 160 432c0-38.7-27.48-70.97-64-78.39V223C125.2 262.2 171.5 288 224 288h65.61c7.414 36.52 39.69 64 78.39 64c44.18 0 80-35.82 80-80S412.2 192 368 192zM128 432C128 458.5 106.5 480 80 480S32 458.5 32 432S53.53 384 80 384S128 405.5 128 432zM80 128C53.53 128 32 106.5 32 80S53.53 32 80 32S128 53.53 128 80S106.5 128 80 128zM368 320C341.5 320 320 298.5 320 272S341.5 224 368 224S416 245.5 416 272S394.5 320 368 320z"/></svg>

<svg xmlns="http://www.w3.org/2000/svg" viewBox="0 0 384 512"><path d="M304 192c-41.7 0-76 32-79.7 72.8-25.2-1.3-61.6-7.9-88.8-31.7-20.3-17.8-32.8-43-37.5-75.1 35.5-8.2 62-40 62-77.9 0-44.2-35.8-80-80-80S0 35.8 0 80c0 38.7 27.5 71 64 78.4v195.2C27.5 361 0 393.3 0 432c0 44.2 35.8 80 80 80s80-35.8 80-80c0-38.7-27.5-71-64-78.4V237.4c5.5 7.2 11.7 13.9 18.6 19.9C151 289 197.9 296.1 228 297c10.5 31.9 40.5 55 76 55 44.2 0 80-35.8 80-80s-35.8-80-80-80zM32 80c0-26.5 21.5-48 48-48s48 21.5 48 48-21.5 48-48 48-48-21.5-48-48zm96 352c0 26.5-21.5 48-48 48s-48-21.5-48-48 21.5-48 48-48 48 21.5 48 48zm176-112c-26.5 0-48-21.5-48-48s21.5-48 48-48 48 21.5 48 48-21.5 48-48 48z"/></svg>
